src/assets/icons/files-folders-data,simple,folder-alt.svg

<svg width="48" height="48" viewBox="0 0 48 48" fill="none" xmlns="http://www.w3.org/2000/svg">
<rect opacity="0.2" x="5" y="5" width="38" height="38" rx="4" fill="black"/>
<rect opacity="0.6" x="10" y="10" width="28" height="28" rx="4" fill="black"/>
<path d="M10 27.3409C10 25.1564 10 24.0642 10.4152 23.2255C10.804 22.44 11.44 21.804 12.2255 21.4152C13.0642 21 14.1564 21 16.3409 21C16.9493 21 17.2535 21 17.5503 21.0448C17.8304 21.087 18.1052 21.159 18.3702 21.2593C18.6508 21.3656 18.916 21.5146 19.4465 21.8125L21.4382 22.9314C22.3457 23.4411 22.7994 23.696 23.2972 23.8263C23.7951 23.9565 24.3155 23.9565 25.3563 23.9565H30.9783C33.8079 23.9565 35.2227 23.9565 36.2365 24.6402C36.6624 24.9274 37.0291 25.2941 37.3164 25.7201C38 26.7338 38 28.1486 38 30.9783C38 33.8079 38 35.2227 37.3164 36.2365C37.0291 36.6624 36.6624 37.0291 36.2365 37.3164C35.2227 38 33.8079 38 30.9783 38H18C14.2288 38 12.3431 38 11.1716 36.8284C10 35.6569 10 33.7712 10 30V27.3409Z" fill="black"/>
</svg>

<svg xmlns="http://www.w3.org/2000/svg" width="48" height="48" fill="none" viewBox="0 0 48 48">
  <rect width="38" height="38" x="5" y="5" fill="#000" opacity=".2" rx="4"/>
  <rect width="28" height="28" x="10" y="10" fill="#000" opacity=".6" rx="4"/>
  <path fill="#000" d="M10 27.34c0-2.184 0-3.276.415-4.114a4 4 0 011.81-1.81C13.066 21 14.157 21 16.341 21c.608 0 .912 0 1.21.045a4 4 0 01.82.214c.28.107.545.256 1.076.553l1.991 1.12c.908.51 1.361.764 1.86.894.497.13 1.018.13 2.058.13h5.622c2.83 0 4.245 0 5.258.684a4 4 0 011.08 1.08C38 26.734 38 28.15 38 30.978c0 2.83 0 4.245-.684 5.258a4.003 4.003 0 01-1.08 1.08C35.224 38 33.809 38 30.979 38H18c-3.771 0-5.657 0-6.828-1.172C10 35.657 10 33.771 10 30v-2.66z"/>
</svg>
